X:1088
T:Irish Lullaby #1
C:Joe Buchanan's Scottish Tome - Page 540.3
I:540 3
Z:Carl Allison
R:Folk
L:1/4
M:3/4
K:C
"C"E2 D | "G7"C2 D | "C"E2 G- | "E c7"G3 | "F"A2 ^G | "A f"A2 B | "Am"c3- | "C7"c3 |
"F"c2 B | "A f"c2 A | "C"G E2- | "E c"E2 G | "D7"A2 D | "F# d7"D2 E  | "G"D3- | "G"D2 "G7"^D |
"C"E2 D | "G7"C2 D | "E"E G2- | "E c7"G3 | "F"A2 ^G | "A f"A2 B | "Am"c3- | "C7"c3 |
"F"c2 B | "A f"c2 A | "C"G E2- | "A7"E G ^G | "D7"A2 c | "G7"c2 d | "C"c3- | "C"c3 |]

